assets/icons/informations/euro.svg

<svg viewBox="0 0 24 24" xmlns="http://www.w3.org/2000/svg">
<path d="M15 21C13.0333 21 11.2833 20.4417 9.75 19.325C8.21667 18.2083 7.13333 16.7667 6.5 15H4C3.71667 15 3.47933 14.904 3.288 14.712C3.096 14.5207 3 14.2833 3 14C3 13.7167 3.096 13.479 3.288 13.287C3.47933 13.0957 3.71667 13 4 13H6.05C6.01667 12.8167 6 12.65 6 12.5V11.5C6 11.35 6.01667 11.1833 6.05 11H4C3.71667 11 3.47933 10.904 3.288 10.712C3.096 10.5207 3 10.2833 3 10C3 9.71667 3.096 9.479 3.288 9.287C3.47933 9.09567 3.71667 9 4 9H6.5C7.13333 7.23333 8.21667 5.79167 9.75 4.675C11.2833 3.55833 13.0333 3 15 3C15.9167 3 16.7877 3.125 17.613 3.375C18.4377 3.625 19.2083 3.98333 19.925 4.45C20.225 4.65 20.3877 4.93333 20.413 5.3C20.4377 5.66667 20.3083 5.99167 20.025 6.275C19.825 6.475 19.571 6.59167 19.263 6.625C18.9543 6.65833 18.6583 6.59167 18.375 6.425C17.875 6.14167 17.3417 5.91667 16.775 5.75C16.2083 5.58333 15.6167 5.5 15 5.5C13.75 5.5 12.6127 5.821 11.588 6.463C10.5627 7.10433 9.78333 7.95 9.25 9H14C14.2833 9 14.521 9.09567 14.713 9.287C14.9043 9.479 15 9.71667 15 10C15 10.2833 14.9043 10.5207 14.713 10.712C14.521 10.904 14.2833 11 14 11H8.6C8.56667 11.1833 8.54167 11.35 8.525 11.5C8.50833 11.65 8.5 11.8167 8.5 12C8.5 12.1833 8.50833 12.35 8.525 12.5C8.54167 12.65 8.56667 12.8167 8.6 13H14C14.2833 13 14.521 13.0957 14.713 13.287C14.9043 13.479 15 13.7167 15 14C15 14.2833 14.9043 14.5207 14.713 14.712C14.521 14.904 14.2833 15 14 15H9.25C9.78333 16.05 10.5627 16.896 11.588 17.538C12.6127 18.1793 13.75 18.5 15 18.5C15.6 18.5 16.1917 18.4167 16.775 18.25C17.3583 18.0833 17.8917 17.8583 18.375 17.575C18.6583 17.4083 18.95 17.3373 19.25 17.362C19.55 17.3873 19.8083 17.5083 20.025 17.725C20.3083 18.0083 20.4377 18.3333 20.413 18.7C20.3877 19.0667 20.225 19.35 19.925 19.55C19.2083 20.0167 18.4377 20.375 17.613 20.625C16.7877 20.875 15.9167 21 15 21Z" fill="inherit"/>
</svg>

<svg viewBox="0 0 24 24" xmlns="http://www.w3.org/2000/svg"><path d="M15 21a9 9 0 0 1-8.5-6H4a1 1 0 0 1-.7-.3A1 1 0 0 1 3 14c0-.3.1-.5.3-.7.2-.2.4-.3.7-.3h2v-2H4a1 1 0 0 1-.7-.3A1 1 0 0 1 3 10c0-.3.1-.5.3-.7.2-.2.4-.3.7-.3h2.5a9 9 0 0 1 13.4-4.5c.3.2.5.4.5.8s0 .7-.4 1c-.2.2-.4.3-.7.3-.3 0-.6 0-1-.2-.4-.3-1-.5-1.5-.7L15 5.5c-1.3 0-2.4.3-3.4 1C10.6 7 9.8 8 9.3 9H14c.3 0 .5.1.7.3.2.2.3.4.3.7 0 .3-.1.5-.3.7a1 1 0 0 1-.7.3H8.6a7.4 7.4 0 0 0-.1 1 4.6 4.6 0 0 0 .1 1H14c.3 0 .5.1.7.3.2.2.3.4.3.7 0 .3-.1.5-.3.7a1 1 0 0 1-.7.3H9.2a6.3 6.3 0 0 0 5.8 3.5 6.4 6.4 0 0 0 3.4-1c.3 0 .6-.2.9-.1.3 0 .5.1.7.3.3.3.4.6.4 1s-.2.7-.5.9A9 9 0 0 1 15 21Z" fill="inherit"/></svg>
